!!!OTL: Schlemmerlied (211), S. 461
!!!id: T0395
**kern
*clefG2
*k[]
*G:
{8d
=1
8g
16g
16g
16a
16a
8b
8a
8a
=2
4.g}
4r
=3
{8a
=4
8b
8a
8b
8dd
8cc
8b
=5
2a}
8r
=6
{8d
=7
8b
8g
8b
4dd}
=8
{8b
=9
8a
8g
8a
4cc}
=10
{8cc
=11
8b
8dd
8b
8a
8b
8a
=12
2g}
8r
==
*-
!!!minrhy: 16
!!!meters: 6/8 ]  ZZ[5
!!!cut: Schlemmerlied (211), S. 461
!!!reg: Luxemburg
!!!trd: Singendes Volk, Esch-Alzette, 1937 posth.
!!!rhy1: X_  X_XXXXX_X_X_  X__.0__
!!!rhy2: X_  X_X_X_X_X_X_  X___0_
!!!key: T0395  16  G 6/8 ]  ZZ[5
!!!mod: PENTATONIK DUR ?]  AMBITUS[8
!!!kad: 12541
!!!akz: 131_3522_35_24_3211_
!!!fot: 'a__b__c__d__e__
!!!for: 'a__b__bw_bw_b__
!!!fok: '^a_^__~a_Va_\__
!! PHRAS[AUFTAKTIG]
!!!fkt: Trink-, Zechlied
!!!bem1: Hoffelt, hhh Michel Hosinger, 1900,
!!!bem2: mitgeteilt: hhh Heinrich Godefroid (Lehrer)
!! THILL; Mathias
!! PR[30] 2K[7] 2G[17] 3K[3] 3G[7] 4A[0] 4Ü[0] 5A[0] 6K[0] 6G[0]
!! 7K[0] 7G[0] 8A[0] MEHR[0] SI[33] ABS[30] SR[23] SP[10]
!! ST[8] 2k[7] 2g[23] 3k[3] 3g[3] 4d[0] 4ü[0] 5d[0] 6k[0] 6g[0]
!! 7k[0] 7g[0] 8d[0] mehr[0] si[37] dm[-4] sr[30] sp[7]
!! 1F[97] 2F[3] 3F[0] 4F[0] LF[0] 2P[0] 3P[0] 4P[0] TRI[0] DF[2] AB[31]
!! TF[0] U3K[0] U3[0] U4[0] U4Ü[0] U5[0] U6K[0] U6[0] U7K[0] U7[0]
!! N1[3] N2K[0] N2[3] N3K[0] N3[26] N4[16] N4Ü[0] N5[39] N6K[0] N6[13]
!!!n7k: 0] N7[0] O1[0] O2K[0] O2[0] O3K[0] O3[0] HÖ[0
